Sources/FrostedUI/Resources/Icons.xcassets/couponActive20.imageset/coupon-active-20.svg

<svg width="20" height="20" viewBox="0 0 20 20" fill="none" xmlns="http://www.w3.org/2000/svg" data-fui-icon="true">
  <path
    d="M7.10742 0.5C7.42027 0.5 7.69995 0.694317 7.80957 0.987305C8.13945 1.86995 8.99557 2.5 10 2.5C11.0044 2.5 11.8606 1.86994 12.1904 0.987305L12.2393 0.882812C12.3705 0.649154 12.6187 0.5 12.8926 0.5H16C17.1046 0.500001 18 1.39543 18 2.5V17.5C18 18.6046 17.1046 19.5 16 19.5H12.8926C12.5797 19.5 12.3001 19.3057 12.1904 19.0127C11.8606 18.1301 11.0044 17.5 10 17.5C8.99557 17.5 8.13945 18.1301 7.80957 19.0127C7.69995 19.3057 7.42027 19.5 7.10742 19.5H4C2.89543 19.5 2 18.6046 2 17.5V2.5C2 1.39543 2.89543 0.5 4 0.5H7.10742ZM4 2C3.72386 2 3.5 2.22386 3.5 2.5V17.5C3.5 17.7761 3.72386 18 4 18H6.62891C7.27846 16.8087 8.54424 16 10 16C11.4558 16 12.7215 16.8087 13.3711 18H16C16.2761 18 16.5 17.7761 16.5 17.5V2.5C16.5 2.22386 16.2761 2 16 2H13.3711C12.7215 3.19133 11.4558 4 10 4C8.54424 4 7.27846 3.19133 6.62891 2H4ZM12.625 10.5C13.6605 10.5 14.5 11.3395 14.5 12.375C14.5 13.4105 13.6605 14.25 12.625 14.25C11.5895 14.25 10.75 13.4105 10.75 12.375C10.75 11.3395 11.5895 10.5 12.625 10.5ZM12.7197 6.21973C13.0126 5.92683 13.4874 5.92683 13.7803 6.21973C14.0732 6.51262 14.0732 6.98738 13.7803 7.28027L7.28027 13.7803C6.98738 14.0732 6.51262 14.0732 6.21973 13.7803C5.92683 13.4874 5.92683 13.0126 6.21973 12.7197L12.7197 6.21973ZM12.625 12C12.4179 12 12.25 12.1679 12.25 12.375C12.25 12.5821 12.4179 12.75 12.625 12.75C12.8321 12.75 13 12.5821 13 12.375C13 12.1679 12.8321 12 12.625 12ZM7.375 5.75C8.41053 5.75 9.25 6.58947 9.25 7.625C9.25 8.66053 8.41053 9.5 7.375 9.5C6.33947 9.5 5.5 8.66053 5.5 7.625C5.5 6.58947 6.33947 5.75 7.375 5.75ZM7.375 7.25C7.16789 7.25 7 7.41789 7 7.625C7 7.83211 7.16789 8 7.375 8C7.58211 8 7.75 7.83211 7.75 7.625C7.75 7.41789 7.58211 7.25 7.375 7.25Z"
    fill="currentColor"
  />
</svg>

<svg xmlns="http://www.w3.org/2000/svg" width="20" height="20" fill="none" data-fui-icon="true" viewBox="0 0 20 20"><path fill="currentColor" d="M7.107.5a.75.75 0 0 1 .703.487A2.34 2.34 0 0 0 10 2.5c1.004 0 1.86-.63 2.19-1.513l.05-.104A.75.75 0 0 1 12.892.5H16a2 2 0 0 1 2 2v15a2 2 0 0 1-2 2h-3.107a.75.75 0 0 1-.703-.487A2.34 2.34 0 0 0 10 17.5c-1.004 0-1.86.63-2.19 1.513a.75.75 0 0 1-.703.487H4a2 2 0 0 1-2-2v-15a2 2 0 0 1 2-2zM4 2a.5.5 0 0 0-.5.5v15a.5.5 0 0 0 .5.5h2.629c.65-1.191 1.915-2 3.371-2s2.722.809 3.371 2H16a.5.5 0 0 0 .5-.5v-15A.5.5 0 0 0 16 2h-2.629A3.84 3.84 0 0 1 10 4a3.84 3.84 0 0 1-3.371-2zm8.625 8.5a1.875 1.875 0 1 1 0 3.75 1.875 1.875 0 0 1 0-3.75m.095-4.28a.75.75 0 1 1 1.06 1.06l-6.5 6.5a.75.75 0 1 1-1.06-1.06zM12.625 12a.375.375 0 1 0 0 .75.375.375 0 0 0 0-.75m-5.25-6.25a1.875 1.875 0 1 1 0 3.75 1.875 1.875 0 0 1 0-3.75m0 1.5a.375.375 0 1 0 0 .75.375.375 0 0 0 0-.75"/></svg>
